assets/images/afrikons/upload-outline.svg

<svg viewBox="0 0 50 50" xmlns="http://www.w3.org/2000/svg"><path d="m0 0h50v50h-50z" fill="none"/><path d="m45 28v.49a20 20 0 0 1 -40 0v-.49h-1.51v.49a21.51 21.51 0 0 0 43 0v-.49z"/><path d="m13.74 21.21 10.52-18.21v32.23h1.48v-32.23l10.52 18.21 1.28-.73-10.89-18.86h.24l-.38-.23-.36-.63a1.33 1.33 0 0 0 -.91-.64v-.12l-.07.07a1.61 1.61 0 0 0 -.31 0l-.1-.1v.15a1.33 1.33 0 0 0 -.91.64l-.36.63-.38.23h.24l-10.89 18.86z"/></svg>

<svg xmlns="http://www.w3.org/2000/svg" viewBox="0 0 50 50"><defs><style>.cls-1{fill:none;}</style></defs><title>upload-outline</title><g id="Layer_2" data-name="Layer 2"><g id="Layer_1-2" data-name="Layer 1"><rect class="cls-1" width="50" height="50"/><path d="M45,28v.49A20,20,0,0,1,5,28.49V28H3.49v.49a21.51,21.51,0,0,0,43,0V28Z"/><path d="M13.74,21.21,24.26,3V35.23h1.48V3L36.26,21.21l1.28-.73L26.65,1.62h.24l-.38-.23L26.15.76a1.33,1.33,0,0,0-.91-.64V0l-.07.07a1.61,1.61,0,0,0-.31,0l-.1-.1V.12a1.33,1.33,0,0,0-.91.64l-.36.63-.38.23h.24L12.46,20.48Z"/></g></g></svg>
